styles/3/Numix/128/places/blue-folder-documents.svg

<!-- Created with Inkscape (http://www.inkscape.org/) -->
<svg xmlns="http://www.w3.org/2000/svg" viewBox="0 0 128 128">
 <g transform="translate(0,-924.3622)">
  <path d="m 12 948.36 104 0 0 40 -104 0 z m 0 0" style="fill:#1976d2;fill-opacity:1;stroke:none;fill-rule:nonzero"/>
  <path d="m 24 948.36 c 0 -4 0 -8 5.816 -8 l 20.367 0 c 5.816 0 5.816 4 5.816 8 l 0 4 -32 0 z m 0 0" style="fill:#1976d2;fill-opacity:1;stroke:none;fill-rule:nonzero"/>
  <path d="m 20 956.36 88 0 0 19.871 -88 0 z m 0 0" style="fill:#94979e;fill-opacity:1;stroke:none;fill-rule:nonzero"/>
  <path d="m 28 952.36 76 0 0 52 -76 0 z m 0 0" style="fill:#d7d7d9;fill-opacity:1;stroke:none;fill-rule:nonzero"/>
  <path d="m 24 960.36 76 0 0 52 -76 0 z m 0 0" style="fill:#f8f8f8;fill-opacity:1;stroke:none;fill-rule:nonzero"/>
  <path d="m 4 964.36 120 0 -8.57 72 -102.86 0 z m 0 0" style="fill:#42a5f5;fill-opacity:1;stroke:none;fill-rule:nonzero"/>
  <path d="m 48 48 c -4.432 0 -8 3.568 -8 8 l 0 40 c 0 4.432 3.568 8 8 8 l 32 0 c 4.432 0 8 -3.568 8 -8 l 0 -28 l -20 -20 l -20 0 z m 0 8 l 20 0 l 0 12 l 12 0 l 0 28 l -32 0 l 0 -40 z m 5 16 c -0.554 0 -1 0.446 -1 1 l 0 2 c 0 0.554 0.446 1 1 1 l 14 0 c 0.554 0 1 -0.446 1 -1 l 0 -2 c 0 -0.554 -0.446 -1 -1 -1 l -14 0 z m 0 8 c -0.554 0 -1 0.446 -1 1 l 0 2 c 0 0.554 0.446 1 1 1 l 22 0 c 0.554 0 1 -0.446 1 -1 l 0 -2 c 0 -0.554 -0.446 -1 -1 -1 l -22 0 z m 0 8 c -0.554 0 -1 0.446 -1 1 l 0 2 c 0 0.554 0.446 1 1 1 l 22 0 c 0.554 0 1 -0.446 1 -1 l 0 -2 c 0 -0.554 -0.446 -1 -1 -1 l -22 0 z" transform="translate(0,924.3622)" style="fill:#2a74b9;opacity:1;fill-opacity:1;stroke:none"/>
 </g>
</svg>

<?xml version="1.0" encoding="UTF-8" standalone="no"?>
<!-- Created with Inkscape (http://www.inkscape.org/) -->

<svg
   xmlns:dc="http://purl.org/dc/elements/1.1/"
   xmlns:cc="http://creativecommons.org/ns#"
   xmlns:rdf="http://www.w3.org/1999/02/22-rdf-syntax-ns#"
   xmlns:svg="http://www.w3.org/2000/svg"
   xmlns="http://www.w3.org/2000/svg"
   xmlns:sodipodi="http://sodipodi.sourceforge.net/DTD/sodipodi-0.dtd"
   xmlns:inkscape="http://www.inkscape.org/namespaces/inkscape"
   width="128"
   height="128"
   id="svg2"
   version="1.1"
   inkscape:version="0.91 r"
   sodipodi:docname="blue-folder-documents.svg"
   inkscape:export-filename="/media/Data/Main/Visuals/Icons/Numix/Desktop/repos/numix-wiki/Gjorgi/Numix-folders/48/New/folder-144.png"
   inkscape:export-xdpi="270"
   inkscape:export-ydpi="270">
  <defs
     id="defs4" />
  <sodipodi:namedview
     id="base"
     pagecolor="#ffffff"
     bordercolor="#666666"
     borderopacity="1.0"
     inkscape:pageopacity="0.0"
     inkscape:pageshadow="2"
     inkscape:zoom="2.458542"
     inkscape:cx="-53.722024"
     inkscape:cy="63.531214"
     inkscape:document-units="px"
     inkscape:current-layer="layer1"
     showgrid="true"
     inkscape:window-width="1280"
     inkscape:window-height="998"
     inkscape:window-x="0"
     inkscape:window-y="0"
     inkscape:window-maximized="1"
     showguides="true"
     inkscape:guide-bbox="true">
    <inkscape:grid
       type="xygrid"
       id="grid2985"
       empspacing="5"
       visible="true"
       enabled="true"
       snapvisiblegridlinesonly="true" />
  </sodipodi:namedview>
  <metadata
     id="metadata7">
    <rdf:RDF>
      <cc:Work
         rdf:about="">
        <dc:format>image/svg+xml</dc:format>
        <dc:type
           rdf:resource="http://purl.org/dc/dcmitype/StillImage" />
        <dc:title />
      </cc:Work>
    </rdf:RDF>
  </metadata>
  <g
     inkscape:label="Layer 1"
     inkscape:groupmode="layer"
     id="layer1"
     transform="translate(0,-924.3622)">
    <path
       inkscape:connector-curvature="0"
       id="path5"
       d="m 12,948.3622 104,0 0,40 -104,0 z m 0,0"
       style="fill:#1976d2;fill-opacity:1;fill-rule:nonzero;stroke:none" />
    <path
       inkscape:connector-curvature="0"
       id="path7"
       d="m 24,948.3622 c 0,-4 0,-8 5.81641,-8 l 20.36719,0 c 5.8164,0 5.8164,4 5.8164,8 l 0,4 -32,0 z m 0,0"
       style="fill:#1976d2;fill-opacity:1;fill-rule:nonzero;stroke:none" />
    <path
       inkscape:connector-curvature="0"
       id="path9"
       d="m 20,956.3622 88,0 0,19.87109 -88,0 z m 0,0"
       style="fill:#94979e;fill-opacity:1;fill-rule:nonzero;stroke:none" />
    <path
       inkscape:connector-curvature="0"
       id="path11"
       d="m 28,952.3622 76,0 0,52 -76,0 z m 0,0"
       style="fill:#d7d7d9;fill-opacity:1;fill-rule:nonzero;stroke:none" />
    <path
       inkscape:connector-curvature="0"
       id="path13"
       d="m 24,960.3622 76,0 0,52 -76,0 z m 0,0"
       style="fill:#f8f8f8;fill-opacity:1;fill-rule:nonzero;stroke:none" />
    <path
       inkscape:connector-curvature="0"
       id="path15"
       d="m 4,964.3622 120,0 -8.57031,72 -102.85937,0 z m 0,0"
       style="fill:#42a5f5;fill-opacity:1;fill-rule:nonzero;stroke:none" />
    <path
       style="fill:#2a74b9;fill-opacity:1;stroke:none;opacity:1.0"
       d="M 48 48 C 43.568 48 40 51.568 40 56 L 40 96 C 40 100.432 43.568 104 48 104 L 80 104 C 84.432 104 88 100.432 88 96 L 88 68 L 68 48 L 48 48 z M 48 56 L 68 56 L 68 68 L 80 68 L 80 96 L 48 96 L 48 56 z M 53 72 C 52.446 72 52 72.446 52 73 L 52 75 C 52 75.554 52.446 76 53 76 L 67 76 C 67.554 76 68 75.554 68 75 L 68 73 C 68 72.446 67.554 72 67 72 L 53 72 z M 53 80 C 52.446 80 52 80.446 52 81 L 52 83 C 52 83.554 52.446 84 53 84 L 75 84 C 75.554 84 76 83.554 76 83 L 76 81 C 76 80.446 75.554 80 75 80 L 53 80 z M 53 88 C 52.446 88 52 88.446 52 89 L 52 91 C 52 91.554 52.446 92 53 92 L 75 92 C 75.554 92 76 91.554 76 91 L 76 89 C 76 88.446 75.554 88 75 88 L 53 88 z "
       transform="translate(0,924.3622)"
       id="rect2991-3" />
  </g>
</svg>
